src/assets/clubs_2.svg

<?xml version="1.0" encoding="UTF-8"?>
<svg xmlns="http://www.w3.org/2000/svg" xmlns:xlink="http://www.w3.org/1999/xlink" width="99px" height="140px" viewBox="0 0 99 140" version="1.1">
<g id="surface1">
<path style="fill-rule:nonzero;fill:rgb(100%,100%,100%);fill-opacity:1;stroke-width:0.756;stroke-linecap:butt;stroke-linejoin:miter;stroke:rgb(50.196078%,50.196078%,50.196078%);stroke-opacity:1;stroke-miterlimit:4;" d="M 9.297585 719.743113 L 224.702415 719.743113 C 229.632812 719.743113 233.621449 723.747661 233.621449 728.681339 L 233.621449 1043.043001 C 233.621449 1047.976679 229.632812 1051.981227 224.702415 1051.981227 L 9.297585 1051.981227 C 4.367188 1051.981227 0.378551 1047.976679 0.378551 1043.043001 L 0.378551 728.681339 C 0.378551 723.747661 4.367188 719.743113 9.297585 719.743113 Z M 9.297585 719.743113 " transform="matrix(0.423077,0,0,0.42042,0,-302.434546)"/>
<path style=" stroke:none;fill-rule:nonzero;fill:rgb(0%,0%,0%);fill-opacity:1;" d="M 48.480469 32.773438 L 50.515625 32.773438 L 50.515625 39.820312 L 48.480469 39.820312 Z M 48.480469 32.773438 "/>
<path style=" stroke:none;fill-rule:nonzero;fill:rgb(0%,0%,0%);fill-opacity:1;" d="M 60.695312 29.40625 C 62.300781 32.285156 61.257812 35.914062 58.371094 37.511719 C 55.484375 39.113281 51.84375 38.074219 50.238281 35.195312 C 49.808594 34.429688 49.558594 33.578125 49.5 32.703125 C 49.277344 35.992188 46.421875 38.472656 43.125 38.25 C 39.832031 38.027344 37.339844 35.179688 37.566406 31.894531 C 37.789062 28.613281 40.640625 26.128906 43.9375 26.351562 C 44.804688 26.410156 45.644531 26.65625 46.417969 27.074219 C 43.59375 25.382812 42.667969 21.722656 44.363281 18.898438 C 46.058594 16.070312 49.730469 15.148438 52.566406 16.839844 C 55.402344 18.527344 56.328125 22.1875 54.632812 25.015625 C 54.121094 25.867188 53.40625 26.574219 52.558594 27.085938 C 55.449219 25.488281 59.089844 26.527344 60.695312 29.40625 Z M 60.695312 29.40625 "/>
<path style=" stroke:none;fill-rule:nonzero;fill:rgb(0%,0%,0%);fill-opacity:1;" d="M 6.9375 23.441406 L 7.617188 23.441406 L 7.617188 25.789062 L 6.9375 25.789062 Z M 6.9375 23.441406 "/>
<path style=" stroke:none;fill-rule:nonzero;fill:rgb(0%,0%,0%);fill-opacity:1;" d="M 11.011719 22.316406 C 11.546875 23.277344 11.199219 24.488281 10.238281 25.019531 C 9.273438 25.550781 8.058594 25.207031 7.523438 24.246094 C 7.382812 23.992188 7.296875 23.707031 7.277344 23.417969 C 7.203125 24.511719 6.253906 25.339844 5.15625 25.265625 C 4.054688 25.191406 3.226562 24.242188 3.300781 23.148438 C 3.375 22.050781 4.328125 21.226562 5.425781 21.300781 C 5.714844 21.320312 5.996094 21.402344 6.25 21.539062 C 5.308594 20.976562 5.003906 19.757812 5.566406 18.8125 C 6.132812 17.871094 7.355469 17.566406 8.300781 18.128906 C 9.246094 18.691406 9.554688 19.910156 8.988281 20.855469 C 8.820312 21.136719 8.582031 21.375 8.296875 21.542969 C 9.261719 21.011719 10.476562 21.359375 11.011719 22.316406 Z M 11.011719 22.316406 "/>
<path style=" stroke:none;fill-rule:nonzero;fill:rgb(0%,0%,0%);fill-opacity:1;" d="M 91.621094 116.558594 L 92.300781 116.558594 L 92.300781 114.210938 L 91.621094 114.210938 Z M 91.621094 116.558594 "/>
<path style=" stroke:none;fill-rule:nonzero;fill:rgb(0%,0%,0%);fill-opacity:1;" d="M 95.691406 117.683594 C 96.226562 116.722656 95.882812 115.511719 94.917969 114.980469 C 93.957031 114.449219 92.742188 114.792969 92.207031 115.753906 C 92.066406 116.007812 91.980469 116.292969 91.960938 116.582031 C 91.886719 115.488281 90.9375 114.660156 89.835938 114.734375 C 88.738281 114.808594 87.910156 115.757812 87.984375 116.851562 C 88.058594 117.949219 89.007812 118.773438 90.109375 118.699219 C 90.394531 118.679688 90.675781 118.597656 90.933594 118.460938 C 89.992188 119.023438 89.683594 120.242188 90.25 121.1875 C 90.8125 122.128906 92.039062 122.433594 92.984375 121.871094 C 93.929688 121.308594 94.238281 120.089844 93.671875 119.144531 C 93.5 118.863281 93.265625 118.625 92.980469 118.457031 C 93.945312 118.988281 95.160156 118.640625 95.691406 117.683594 Z M 95.691406 117.683594 "/>
<path style=" stroke:none;fill-rule:nonzero;fill:rgb(0%,0%,0%);fill-opacity:1;" d="M 48.480469 107.226562 L 50.515625 107.226562 L 50.515625 100.179688 L 48.480469 100.179688 Z M 48.480469 107.226562 "/>
<path style=" stroke:none;fill-rule:nonzero;fill:rgb(0%,0%,0%);fill-opacity:1;" d="M 60.695312 110.59375 C 62.300781 107.714844 61.257812 104.085938 58.371094 102.488281 C 55.484375 100.886719 51.84375 101.925781 50.238281 104.804688 C 49.808594 105.570312 49.558594 106.421875 49.5 107.296875 C 49.277344 104.007812 46.421875 101.527344 43.125 101.75 C 39.832031 101.972656 37.339844 104.820312 37.566406 108.105469 C 37.789062 111.386719 40.640625 113.871094 43.9375 113.648438 C 44.804688 113.589844 45.644531 113.34375 46.417969 112.925781 C 43.59375 114.617188 42.667969 118.277344 44.363281 121.101562 C 46.058594 123.929688 49.730469 124.851562 52.566406 123.160156 C 55.402344 121.472656 56.328125 117.8125 54.632812 114.984375 C 54.121094 114.132812 53.40625 113.425781 52.558594 112.914062 C 55.449219 114.511719 59.089844 113.472656 60.695312 110.59375 Z M 60.695312 110.59375 "/>
<path style=" stroke:none;fill-rule:nonzero;fill:rgb(0%,0%,0%);fill-opacity:1;" d="M 11.207031 12.777344 L 10.910156 15.199219 L 3.296875 15.199219 C 3.414062 13.808594 3.957031 12.582031 4.921875 11.519531 L 7.507812 9.246094 C 8.40625 8.445312 8.855469 7.640625 8.855469 6.835938 C 8.855469 6.296875 8.707031 5.867188 8.40625 5.550781 C 8.113281 5.226562 7.710938 5.0625 7.195312 5.0625 C 6.601562 5.0625 6.15625 5.230469 5.863281 5.558594 C 5.671875 5.777344 5.527344 6.113281 5.425781 6.570312 C 5.324219 7.054688 5.246094 7.332031 5.1875 7.410156 C 5.101562 7.4375 5.003906 7.453125 4.890625 7.453125 L 3.886719 7.453125 C 3.769531 7.453125 3.667969 7.425781 3.582031 7.378906 C 3.546875 7.261719 3.527344 7.132812 3.527344 6.992188 C 3.527344 5.84375 3.890625 4.933594 4.621094 4.257812 C 5.316406 3.609375 6.222656 3.285156 7.339844 3.285156 C 8.375 3.285156 9.222656 3.570312 9.882812 4.140625 C 10.585938 4.746094 10.933594 5.574219 10.933594 6.628906 C 10.933594 7.664062 10.546875 8.617188 9.769531 9.476562 C 9.5 9.785156 8.730469 10.441406 7.457031 11.445312 C 6.535156 12.1875 5.964844 12.851562 5.753906 13.445312 L 9.46875 13.445312 L 9.53125 12.703125 C 9.589844 12.441406 9.746094 12.308594 10.003906 12.308594 L 10.800781 12.308594 C 11.109375 12.308594 11.242188 12.464844 11.207031 12.777344 Z M 11.207031 12.777344 "/>
<path style=" stroke:none;fill-rule:nonzero;fill:rgb(0%,0%,0%);fill-opacity:1;" d="M 87.792969 127.222656 L 88.089844 124.800781 L 95.703125 124.800781 C 95.585938 126.191406 95.042969 127.417969 94.078125 128.480469 L 91.492188 130.753906 C 90.59375 131.554688 90.144531 132.359375 90.144531 133.164062 C 90.144531 133.703125 90.292969 134.132812 90.59375 134.449219 C 90.882812 134.773438 91.289062 134.9375 91.804688 134.9375 C 92.398438 134.9375 92.84375 134.769531 93.136719 134.441406 C 93.328125 134.222656 93.472656 133.886719 93.574219 133.429688 C 93.675781 132.945312 93.753906 132.667969 93.8125 132.589844 C 93.898438 132.5625 93.996094 132.546875 94.109375 132.546875 L 95.113281 132.546875 C 95.230469 132.546875 95.332031 132.574219 95.417969 132.621094 C 95.453125 132.738281 95.472656 132.867188 95.472656 133.007812 C 95.472656 134.15625 95.109375 135.066406 94.378906 135.742188 C 93.683594 136.390625 92.777344 136.714844 91.660156 136.714844 C 90.625 136.714844 89.777344 136.429688 89.117188 135.859375 C 88.414062 135.253906 88.066406 134.425781 88.066406 133.371094 C 88.066406 132.335938 88.453125 131.382812 89.230469 130.523438 C 89.5 130.214844 90.269531 129.558594 91.542969 128.554688 C 92.464844 127.8125 93.035156 127.148438 93.246094 126.554688 L 89.53125 126.554688 L 89.46875 127.296875 C 89.410156 127.558594 89.253906 127.691406 88.996094 127.691406 L 88.199219 127.691406 C 87.890625 127.691406 87.757812 127.535156 87.792969 127.222656 Z M 87.792969 127.222656 "/>
</g>
</svg>

<svg xmlns="http://www.w3.org/2000/svg" width="99" height="140"><path d="M9.298 719.743h215.404c4.93 0 8.92 4.005 8.92 8.938v314.362c0 4.934-3.99 8.938-8.92 8.938H9.298c-4.93 0-8.92-4.004-8.92-8.938V728.681c0-4.933 3.99-8.938 8.92-8.938Zm0 0" style="fill-rule:nonzero;fill:#fff;fill-opacity:1;stroke-width:.756;stroke-linecap:butt;stroke-linejoin:miter;stroke:gray;stroke-opacity:1;stroke-miterlimit:4" transform="matrix(.42308 0 0 .42042 0 -302.435)"/><path d="M48.48 32.773h2.036v7.047H48.48Zm0 0" style="stroke:none;fill-rule:nonzero;fill:#000;fill-opacity:1"/><path d="M60.695 29.406a5.95 5.95 0 0 1-2.324 8.106 5.989 5.989 0 0 1-8.133-2.317 5.894 5.894 0 0 1-.738-2.492c-.223 3.29-3.078 5.77-6.375 5.547-3.293-.223-5.785-3.07-5.559-6.355.223-3.282 3.075-5.766 6.371-5.543a6.063 6.063 0 0 1 2.481.722c-2.824-1.691-3.75-5.351-2.055-8.176a5.99 5.99 0 0 1 8.203-2.058 5.95 5.95 0 0 1 2.067 8.176 6.08 6.08 0 0 1-2.074 2.07c2.89-1.598 6.53-.559 8.136 2.32ZM6.938 23.441h.68v2.348h-.68Zm0 0" style="stroke:none;fill-rule:nonzero;fill:#000;fill-opacity:1"/><path d="M11.012 22.316c.535.961.187 2.172-.774 2.704a2.002 2.002 0 0 1-2.715-.774 1.997 1.997 0 0 1-.246-.828 1.99 1.99 0 0 1-2.12 1.848A1.99 1.99 0 0 1 3.3 23.148a1.99 1.99 0 0 1 2.125-1.847c.289.02.57.101.824.238a1.988 1.988 0 0 1-.684-2.727 1.998 1.998 0 0 1 2.735-.683 1.982 1.982 0 0 1-.004 3.414 2.005 2.005 0 0 1 2.715.773ZM91.621 116.559h.68v-2.348h-.68Zm0 0" style="stroke:none;fill-rule:nonzero;fill:#000;fill-opacity:1"/><path d="M95.691 117.684a1.981 1.981 0 0 0-.773-2.704 1.998 1.998 0 0 0-2.711.774c-.14.254-.227.539-.246.828a1.99 1.99 0 0 0-2.125-1.848 1.988 1.988 0 1 0 .273 3.965c.286-.02.567-.101.825-.238a1.985 1.985 0 0 0-.684 2.727 1.997 1.997 0 0 0 2.734.683 1.982 1.982 0 0 0-.004-3.414 2 2 0 0 0 2.711-.773ZM48.48 107.227h2.036v-7.047H48.48Zm0 0" style="stroke:none;fill-rule:nonzero;fill:#000;fill-opacity:1"/><path d="M60.695 110.594a5.95 5.95 0 0 0-2.324-8.106 5.989 5.989 0 0 0-8.133 2.317 5.894 5.894 0 0 0-.738 2.492c-.223-3.29-3.078-5.77-6.375-5.547-3.293.223-5.785 3.07-5.559 6.355.223 3.282 3.075 5.766 6.371 5.543a6.063 6.063 0 0 0 2.481-.722c-2.824 1.691-3.75 5.351-2.055 8.176a5.99 5.99 0 0 0 8.203 2.058 5.95 5.95 0 0 0 2.067-8.176 6.08 6.08 0 0 0-2.074-2.07c2.89 1.598 6.53.559 8.136-2.32ZM11.207 12.777 10.91 15.2H3.297c.117-1.39.66-2.617 1.625-3.68l2.586-2.273c.898-.8 1.347-1.605 1.347-2.41 0-.54-.148-.969-.449-1.285-.293-.324-.695-.489-1.21-.489-.594 0-1.04.168-1.333.497-.191.218-.336.554-.437 1.011-.102.485-.18.762-.239.84a.97.97 0 0 1-.296.043H3.887a.628.628 0 0 1-.305-.074 1.34 1.34 0 0 1-.055-.387c0-1.148.364-2.058 1.094-2.734.695-.649 1.602-.973 2.719-.973 1.035 0 1.883.285 2.543.856.703.605 1.05 1.433 1.05 2.488 0 1.035-.386 1.988-1.163 2.848-.27.308-1.04.964-2.313 1.968-.922.742-1.492 1.407-1.703 2h3.715l.062-.742c.059-.262.215-.394.473-.394h.797c.308 0 .441.156.406.468ZM87.793 127.223l.297-2.422h7.613c-.117 1.39-.66 2.617-1.625 3.68l-2.586 2.273c-.898.8-1.347 1.605-1.347 2.41 0 .54.148.969.449 1.285.289.324.695.488 1.21.488.594 0 1.04-.167 1.333-.496.191-.218.336-.554.437-1.011.102-.485.18-.762.239-.84a.97.97 0 0 1 .296-.043h1.004c.117 0 .219.027.305.074.035.117.055.246.055.387 0 1.148-.364 2.058-1.094 2.734-.695.649-1.602.973-2.719.973-1.035 0-1.883-.285-2.543-.856-.703-.605-1.05-1.433-1.05-2.488 0-1.035.386-1.988 1.163-2.848.27-.308 1.04-.964 2.313-1.968.922-.743 1.492-1.407 1.703-2h-3.715l-.062.742c-.059.262-.215.394-.473.394H88.2c-.308 0-.441-.156-.406-.468Zm0 0" style="stroke:none;fill-rule:nonzero;fill:#000;fill-opacity:1"/></svg>
